X: 29665
T: Norwegian
R: waltz
M: 3/4
K: Gmajor
G2 B2 e2|d3 ^c d2|G2 B2 e2|d3 ^c d2|D2 F2 A2|d3 ^c d2|
e2 d2 c2|B6|G2 B2 e2|d3 ^c d2|G2 B2 e2|d3 ^c d2|D2 F2 A2|d3 ^c d2|
c2 B2 A2|G6||G2 B2 d2|g3 f g2|a2 g2 e2|e2 d^c d2|D2F2 A2|
d3 ^c d2|e2 d2 c2|B6|G2 B2 d2|g3 f g2|a2 g2 e2|e2 d^c d2|
D2 F2 A2|d3 ^c d2|c2 B2 A2|G6||

